X:1
T:Title
%%score ( 1 2 ) { 3 | 4 }
L:1/8
Q:1/4=123
M:3/4
K:F
V:1 treble nm="Grand Piano, Unnamed-000"
V:2 treble 
V:3 treble nm="Choir Pad, Speed Away"
V:4 bass 
V:1
 [Ac]>[Ac] [Ac]4 | [Ac]>[Ac] [Ac]4 | [Ac][Ac] [Ac]2 [_A=B]2 | [Ac]2 [FA]4 | [FA][FA] [FA]2 [F_A]2 | %5
w: By~I.~B.~Woodbury,~circa~1890 * *|||||
 [FA]2 F2 F2 | [EG]2 [FA]2 [GB]2 | [FA]2 [EG]4 | [EG][EG] [EG]2 [FA]2 | [GB]2 [GB]2 [FA]2 | %10
w: |||||
 [EG]2 [FA]2 [GB]2 | [Ac]2 [FA]4 | [FA][FA] [EG]2 [FA]2 | [GB]2 [GB]2 [FA]2 | [EG]2 [FA]2 [GB]2 | %15
w: |||||
 [Ac]2 [FA]4 | [Ac][Ac] [Ac]2 [_A=B]2 | [Ac]2 [FA]4 | [Ac]>[Ac] [Ac]2 [_A=B]2 | [Ac]2 [FA]4 | %20
w: |||||
 [Fd]>[Fd] [Fd]4 | z6 | z2 c2 z2 | [GB]2 [FA]4- | [FA]4 z2 |] %25
w: |||||
V:2
 x6 | x6 | x6 | x6 | x6 | x6 | x6 | x6 | x6 | x6 | x6 | x6 | x6 | x6 | x6 | x6 | x6 | x6 | x6 | %19
 x6 | x6 | [Fc]>[Fc] [Fc]4- | [Fc]2 E2- [EG]2 | x6 | x6 |] %25
V:3
 F>F F4 | F>F F4 | FF F2 D2 | C2 C4 | CC C2 =B,2 | C2 A,2 C2 | C2 C2 C2 | C2 C4 | CC C2 C2 | %9
 C2 C2 C2 | C2 C2 C2 | F2 C4 | CC C2 C2 | C2 C2 C2 | C2 C2 C2 | F2 C4 | FF F2 D2 | C2 C4 | %18
 C>C F2 D2 | C2 C4 | B,>B, B,4 | A,>A, A,4- | A,2[K:treble] G,2 C2 | C2 C4- | C4 z2 |] %25
V:4
 F,>F, F,4 | F,>F, F,4 | F,F, F,2 F,2 | F,2 F,4 | F,F, F,2 F,2 | F,2 F,2 A,,2 | C,2 F,2 E,2 | %7
 F,2 C,4 | C,C, C,2 C,2 | C,2 C,2 C,2 | C,2 F,2 F,2 | F,2 F,4 | F,F, C,2 C,2 | C,2 C,2 C,2 | %14
 C,2 F,2 F,2 | F,2 F,4 | F,F, F,2 F,2 | F,2 F,4 | F,>F, F,2 F,2 | F,2 F,4 | z6 | F,>F, F,4- | %22
 F,2 C,4 | C,2 F,4- | F,4 z2 |] %25

